dist/svg/u1F45E.svg

<?xml version="1.0" encoding="UTF-8"?><svg id="a" xmlns="http://www.w3.org/2000/svg" viewBox="0 0 40 40"><g><path d="M2.648,7.64l-1.146,24.372c-.044,.712,.521,1.313,1.234,1.313H15.164c.273,0,.522-.158,.637-.405l.813-1.738c.183-.39,.669-.526,1.027-.287l3.471,2.312c.116,.077,.251,.118,.39,.118h16.655c.189,0,.34-.151,.341-.34,.005-1.454-.342-7.113-6.02-7.943-5.771-.843-11.297-11.449-14.321-17.329-.51-.991-1.748-1.325-2.701-.747-1.955,1.186-5.284,2.791-11.181-.155-.722-.361-1.579,.024-1.629,.829Z" fill="#956759"/><path d="M16.551,21.942c-7.458-.777-7.552,6.63-7.552,6.63h28.517c-.82-1.623-1.896-3.122-5.08-3.776-3.308-.679-4.684-2.1-8.244-6.67,0,0-.934,4.487-4.898,4.256-.816-.048-1.728-.301-2.742-.44Z" fill="#6e4944"/><path d="M37.515,28.572H1.716l-.214,3.44c-.044,.712,.521,1.313,1.234,1.313H15.164c.273,0,.521-.158,.637-.405l.813-1.738c.183-.39,.669-.526,1.027-.287l3.471,2.312c.116,.077,.251,.118,.39,.118h16.65l.341-.327c.014-.75-.085-2.655-.98-4.426Z" fill="#423432"/><circle cx="17.033" cy="12.754" r="1.438" fill="#423432"/><circle cx="20.09" cy="17.037" r="1.438" fill="#423432"/></g><rect width="40" height="40" fill="none"/></svg>

<svg id="Layer_1" data-name="Layer 1" xmlns="http://www.w3.org/2000/svg" viewBox="0 0 40 40"><defs><style>.cls-1{fill:#956759;}.cls-2{fill:#6e4944;}.cls-3{fill:#423432;}.cls-4{fill:none;}</style></defs><path class="cls-1" d="M2.648,7.64,1.5,32.012a1.236,1.236,0,0,0,1.234,1.313H15.164a.705.705,0,0,0,.638-.405l.813-1.738a.7.7,0,0,1,1.027-.287l3.472,2.312a.7.7,0,0,0,.39.118H38.159a.34.34,0,0,0,.341-.34c.005-1.454-.342-7.113-6.02-7.943-5.771-.843-11.3-11.449-14.32-17.328a1.912,1.912,0,0,0-2.7-.748C13.5,8.152,10.174,9.758,4.277,6.811A1.08,1.08,0,0,0,2.648,7.64Z"/><path class="cls-2" d="M16.551,21.942C9.093,21.166,9,28.572,9,28.572H37.515a6.38,6.38,0,0,0-5.08-3.775c-3.308-.68-4.684-2.1-8.244-6.67,0,0-.934,4.487-4.9,4.256C18.477,22.335,17.565,22.082,16.551,21.942Z"/><path class="cls-3" d="M37.515,28.572H1.716L1.5,32.012a1.236,1.236,0,0,0,1.234,1.313H15.164a.705.705,0,0,0,.638-.405l.813-1.738a.7.7,0,0,1,1.027-.287l3.472,2.312a.7.7,0,0,0,.39.118h16.65L38.495,33A10.008,10.008,0,0,0,37.515,28.572Z"/><circle class="cls-3" cx="17.033" cy="12.754" r="1.438"/><circle class="cls-3" cx="20.09" cy="17.037" r="1.438"/><rect class="cls-4" width="40" height="40"/></svg>
